static/img/menus/ico-fullscreen.svg

<svg width="16" height="16" viewBox="0 0 16 16" fill="none" xmlns="http://www.w3.org/2000/svg">
<path d="M2.61541 10.1539H1.53849V12.9539C1.5236 13.1651 1.55611 13.3771 1.63363 13.5741C1.71116 13.7712 1.83174 13.9485 1.98657 14.093C2.1414 14.2375 2.32656 14.3456 2.52852 14.4094C2.73048 14.4731 2.94413 14.491 3.15387 14.4616H5.84618V13.3846H3.15387C3.08556 13.3939 3.01606 13.3882 2.95019 13.3679C2.88432 13.3475 2.82366 13.3131 2.77242 13.267C2.72118 13.2209 2.6806 13.1642 2.65349 13.1008C2.62637 13.0374 2.61338 12.9689 2.61541 12.9V10.1539ZM3.15387 2.61541H5.84618V1.53849H3.15387C2.93445 1.50718 2.71074 1.52738 2.50048 1.59749C2.29021 1.6676 2.09915 1.78569 1.94242 1.94242C1.78569 2.09915 1.6676 2.29021 1.59749 2.50048C1.52738 2.71075 1.50718 2.93445 1.53849 3.15387V5.84618H2.61541V3.15387C2.60497 3.08073 2.61171 3.00616 2.63508 2.93607C2.65845 2.86598 2.69781 2.8023 2.75005 2.75006C2.8023 2.69781 2.86598 2.65845 2.93607 2.63508C3.00616 2.61171 3.08073 2.60497 3.15387 2.61541ZM14.4616 10.1539H13.3846V12.9539C13.3831 13.0147 13.3691 13.0745 13.3436 13.1296C13.318 13.1848 13.2813 13.2341 13.2359 13.2745C13.1904 13.3149 13.1372 13.3455 13.0794 13.3644C13.0216 13.3834 12.9606 13.3903 12.9 13.3846H10.1539V14.4616H12.9539C13.1545 14.4716 13.355 14.4395 13.5425 14.3672C13.73 14.295 13.9002 14.1843 14.0423 14.0423C14.1843 13.9002 14.295 13.73 14.3672 13.5425C14.4395 13.355 14.4716 13.1545 14.4616 12.9539V10.1539ZM10.1539 2.61541H12.9539C13.0186 2.61955 13.0818 2.63718 13.1394 2.66715C13.197 2.69712 13.2477 2.73878 13.2882 2.78947C13.3288 2.84015 13.3583 2.89874 13.3749 2.96149C13.3915 3.02424 13.3948 3.08977 13.3846 3.15387V5.84618H14.4616V3.15387C14.491 2.94413 14.4731 2.73048 14.4094 2.52852C14.3456 2.32656 14.2375 2.1414 14.093 1.98657C13.9485 1.83174 13.7712 1.71116 13.5741 1.63363C13.3771 1.55611 13.1651 1.5236 12.9539 1.53849H10.1539V2.61541Z" fill="currentColor"/>
<path d="M12.9538 14.4615C13.9025 14.405 14.405 13.9025 14.4615 12.9538V10.1538H13.3846V12.9538C13.3601 13.2262 13.1985 13.3698 12.9 13.3846H10.1538V14.4615H12.9538ZM5.84615 14.4615V13.3846H3.15385C2.82031 13.3858 2.64077 13.2241 2.61538 12.9V10.1538H1.53846V12.9538C1.58474 13.958 2.1232 14.4605 3.15385 14.4615H5.84615ZM14.4615 5.84615V3.15385C14.4605 2.1232 13.958 1.58474 12.9538 1.53846H10.1538V2.61538H12.9538C13.242 2.65058 13.3856 2.83007 13.3846 3.15385V5.84615H14.4615ZM2.61538 5.84615V3.15385C2.61538 2.79488 2.79488 2.61538 3.15385 2.61538H5.84615V1.53846H3.15385C2.07692 1.53846 1.53846 2.07692 1.53846 3.15385V5.84615H2.61538ZM12.9699 15H9.61539V12.8462H12.8462V9.61539H15L14.9991 12.9859C14.9261 14.2111 14.2111 14.9261 12.9859 14.9991L12.9699 15ZM6.38462 15H3.15385C1.84436 14.9987 1.05972 14.262 1.00057 12.9786L1 12.9538V9.61539H3.15385V12.8462H6.38462V15ZM15 6.38462H12.8462V3.15385H9.61539V1L12.9786 1.00057C14.262 1.05972 14.9987 1.84436 15 3.15332V6.38462ZM3.15385 6.38462H1V3.15385C1 1.78504 1.78504 1 3.15385 1H6.38462V3.15385H3.15385V6.38462Z" fill="currentColor" fill-opacity="0.25"/>
</svg>

<svg xmlns="http://www.w3.org/2000/svg" width="16" height="16" fill="none" viewBox="0 0 16 16"><path fill="currentColor" d="M2.615 10.154H1.538v2.8a1.42 1.42 0 0 0 1.616 1.508h2.692v-1.077H3.154a.474.474 0 0 1-.539-.485zm.539-7.539h2.692V1.538H3.154a1.428 1.428 0 0 0-1.616 1.616v2.692h1.077V3.154a.476.476 0 0 1 .539-.539m11.308 7.539h-1.077v2.8a.444.444 0 0 1-.485.43h-2.746v1.078h2.8a1.437 1.437 0 0 0 1.508-1.508zm-4.308-7.539h2.8a.467.467 0 0 1 .43.539v2.692h1.078V3.154a1.423 1.423 0 0 0-1.508-1.616h-2.8z"/><path fill="currentColor" fill-opacity=".25" d="M12.954 14.462q1.422-.086 1.507-1.508v-2.8h-1.076v2.8q-.038.409-.485.43h-2.746v1.077zm-7.108 0v-1.077H3.154q-.5.001-.539-.485v-2.746H1.538v2.8q.07 1.506 1.616 1.507zm8.615-8.616V3.154q0-1.546-1.507-1.616h-2.8v1.077h2.8q.432.054.43.539v2.692zm-11.846 0V3.154q0-.54.539-.539h2.692V1.538H3.154q-1.616 0-1.616 1.616v2.692zM12.97 15H9.615v-2.154h3.231v-3.23H15v3.37c-.074 1.225-.789 1.94-2.014 2.013zm-6.585 0H3.154c-1.31-.001-2.094-.738-2.153-2.021L1 12.954V9.615h2.154v3.231h3.23zM15 6.385h-2.154V3.154h-3.23V1h3.363c1.283.06 2.02.844 2.021 2.153zm-11.846 0H1V3.154C1 1.785 1.785 1 3.154 1h3.23v2.154h-3.23z"/></svg>
